epam-assets/icon-sources/18/grow.svg

<svg width="18" height="18" viewBox="0 0 18 18" fill="none" xmlns="http://www.w3.org/2000/svg">
<path d="M10.2652 10.8824C10.8479 11.8142 11.1978 13.1336 11.1835 14.6471C11.6427 14.6471 18.0712 9 15.3161 1C12.1019 1.94118 7.51013 5.70588 7.05095 8.05882C7.85704 8.28494 8.73625 8.89294 9.34684 9.47059C9.80601 8.05882 11.6427 6.17647 13.0202 5.23529C11.6427 7.11765 10.7244 8.52941 10.2652 10.8824Z" fill="#6C6F80"/>
<path d="M2 9.00002C2.45918 13.2353 4.75506 16.5294 8.42846 17C8.42846 14.6471 5.67341 11.353 4.75506 10.8824C7.51011 11.353 9.34682 13.7059 10.2652 16.5294C10.2652 16.5294 10.7243 7.11766 2 9.00002Z" fill="#6C6F80"/>
</svg>

<svg xmlns="http://www.w3.org/2000/svg" width="18" height="18" fill="none" viewBox="0 0 18 18">
  <path fill="#6C6F80" d="M10.265 10.882c.583.932.933 2.252.918 3.765.46 0 6.888-5.647 4.133-13.647-3.214.941-7.806 4.706-8.265 7.059.806.226 1.685.834 2.296 1.412.459-1.412 2.296-3.295 3.673-4.236-1.377 1.883-2.296 3.294-2.755 5.647Z"/>
  <path fill="#6C6F80" d="M2 9c.46 4.235 2.755 7.53 6.428 8 0-2.353-2.755-5.647-3.673-6.118 2.755.471 4.592 2.824 5.51 5.647 0 0 .46-9.411-8.265-7.529Z"/>
</svg>
